images/content/regular-convex-uniform/hexahedron.svg

<?xml version="1.0" encoding="UTF-8"?>
<svg xmlns="http://www.w3.org/2000/svg" xmlns:xlink="http://www.w3.org/1999/xlink" width="139pt" height="150pt" viewBox="0 0 139 150" version="1.2">
<g id="surface1">
<path style="fill-rule:nonzero;fill:rgb(67.1875%,72.851562%,89.0625%);fill-opacity:1;stroke-width:2.77575;stroke-linecap:round;stroke-linejoin:round;stroke:rgb(0%,0%,0%);stroke-opacity:1;stroke-miterlimit:10;" d="M 181.640625 380.585938 L 592.929688 800.976562 L 1232.96875 591.71875 " transform="matrix(0.1,0,0,-0.1,0,150)"/>
<path style="fill-rule:nonzero;fill:rgb(93.75%,68.554688%,52.734375%);fill-opacity:1;stroke-width:2.77575;stroke-linecap:round;stroke-linejoin:round;stroke:rgb(0%,0%,0%);stroke-opacity:1;stroke-miterlimit:10;" d="M 571.71875 1432.460938 L 592.929688 800.976562 L 181.640625 380.585938 " transform="matrix(0.1,0,0,-0.1,0,150)"/>
<path style="fill-rule:nonzero;fill:rgb(57.226562%,36.69281%,56.25%);fill-opacity:1;stroke-width:2.77575;stroke-linecap:round;stroke-linejoin:round;stroke:rgb(0%,0%,0%);stroke-opacity:1;stroke-miterlimit:10;" d="M 592.929688 800.976562 L 571.71875 1432.460938 L 1319.960938 1257.929688 " transform="matrix(0.1,0,0,-0.1,0,150)"/>
<path style="fill-rule:nonzero;fill:rgb(57.226562%,36.69281%,56.25%);fill-opacity:1;stroke-width:2.77575;stroke-linecap:round;stroke-linejoin:round;stroke:rgb(0%,0%,0%);stroke-opacity:1;stroke-miterlimit:10;" d="M 1319.960938 1257.929688 L 1232.96875 591.71875 L 592.929688 800.976562 " transform="matrix(0.1,0,0,-0.1,0,150)"/>
<path style="fill-rule:nonzero;fill:rgb(67.1875%,72.851562%,89.0625%);fill-opacity:1;stroke-width:2.77575;stroke-linecap:round;stroke-linejoin:round;stroke:rgb(0%,0%,0%);stroke-opacity:1;stroke-miterlimit:10;" d="M 1232.96875 591.71875 L 911.328125 77.421875 L 181.640625 380.585938 " transform="matrix(0.1,0,0,-0.1,0,150)"/>
<path style="fill-rule:nonzero;fill:rgb(97.264099%,66.209412%,31.005859%);fill-opacity:1;stroke-width:2.77575;stroke-linecap:round;stroke-linejoin:round;stroke:rgb(0%,0%,0%);stroke-opacity:1;stroke-miterlimit:10;" d="M 911.328125 77.421875 L 1232.96875 591.71875 L 1319.960938 1257.929688 " transform="matrix(0.1,0,0,-0.1,0,150)"/>
<path style="fill-rule:nonzero;fill:rgb(93.75%,68.554688%,52.734375%);fill-opacity:1;stroke-width:2.77575;stroke-linecap:round;stroke-linejoin:round;stroke:rgb(0%,0%,0%);stroke-opacity:1;stroke-miterlimit:10;" d="M 181.640625 380.585938 L 77.03125 1076.445312 L 571.71875 1432.460938 " transform="matrix(0.1,0,0,-0.1,0,150)"/>
<path style="fill-rule:nonzero;fill:rgb(62.5%,77.929688%,95.506287%);fill-opacity:1;stroke-width:2.77575;stroke-linecap:round;stroke-linejoin:round;stroke:rgb(0%,0%,0%);stroke-opacity:1;stroke-miterlimit:10;" d="M 1319.960938 1257.929688 L 571.71875 1432.460938 L 77.03125 1076.445312 " transform="matrix(0.1,0,0,-0.1,0,150)"/>
<path style="fill-rule:nonzero;fill:rgb(50%,26.097107%,48.509216%);fill-opacity:1;stroke-width:2.77575;stroke-linecap:round;stroke-linejoin:round;stroke:rgb(0%,0%,0%);stroke-opacity:1;stroke-miterlimit:10;" d="M 77.03125 1076.445312 L 181.640625 380.585938 L 911.328125 77.421875 " transform="matrix(0.1,0,0,-0.1,0,150)"/>
<path style="fill-rule:nonzero;fill:rgb(97.264099%,66.209412%,31.005859%);fill-opacity:1;stroke-width:2.77575;stroke-linecap:round;stroke-linejoin:round;stroke:rgb(0%,0%,0%);stroke-opacity:1;stroke-miterlimit:10;" d="M 1319.960938 1257.929688 L 950.976562 805.820312 L 911.328125 77.421875 " transform="matrix(0.1,0,0,-0.1,0,150)"/>
<path style="fill-rule:nonzero;fill:rgb(62.5%,77.929688%,95.506287%);fill-opacity:1;stroke-width:2.77575;stroke-linecap:round;stroke-linejoin:round;stroke:rgb(0%,0%,0%);stroke-opacity:1;stroke-miterlimit:10;" d="M 77.03125 1076.445312 L 950.976562 805.820312 L 1319.960938 1257.929688 " transform="matrix(0.1,0,0,-0.1,0,150)"/>
<path style="fill-rule:nonzero;fill:rgb(50%,26.097107%,48.509216%);fill-opacity:1;stroke-width:2.77575;stroke-linecap:round;stroke-linejoin:round;stroke:rgb(0%,0%,0%);stroke-opacity:1;stroke-miterlimit:10;" d="M 911.328125 77.421875 L 950.976562 805.820312 L 77.03125 1076.445312 " transform="matrix(0.1,0,0,-0.1,0,150)"/>
</g>
</svg>

<svg xmlns="http://www.w3.org/2000/svg" width="139pt" height="200" viewBox="0 0 139 150" version="1.2"><path style="fill-rule:nonzero;fill:#abbae3;fill-opacity:1;stroke-width:2.77575;stroke-linecap:round;stroke-linejoin:round;stroke:#000;stroke-opacity:1;stroke-miterlimit:10" d="m181.64 380.586 411.29 420.39 640.039-209.257" transform="matrix(.1 0 0 -.1 0 150)"/><path style="fill-rule:nonzero;fill:#efaf86;fill-opacity:1;stroke-width:2.77575;stroke-linecap:round;stroke-linejoin:round;stroke:#000;stroke-opacity:1;stroke-miterlimit:10" d="m571.719 1432.46 21.21-631.483-411.288-420.391" transform="matrix(.1 0 0 -.1 0 150)"/><path style="fill-rule:nonzero;fill:#925e8f;fill-opacity:1;stroke-width:2.77575;stroke-linecap:round;stroke-linejoin:round;stroke:#000;stroke-opacity:1;stroke-miterlimit:10" d="m592.93 800.977-21.211 631.484 748.242-174.531" transform="matrix(.1 0 0 -.1 0 150)"/><path style="fill-rule:nonzero;fill:#925e8f;fill-opacity:1;stroke-width:2.77575;stroke-linecap:round;stroke-linejoin:round;stroke:#000;stroke-opacity:1;stroke-miterlimit:10" d="m1319.96 1257.93-86.991-666.211-640.04 209.258" transform="matrix(.1 0 0 -.1 0 150)"/><path style="fill-rule:nonzero;fill:#abbae3;fill-opacity:1;stroke-width:2.77575;stroke-linecap:round;stroke-linejoin:round;stroke:#000;stroke-opacity:1;stroke-miterlimit:10" d="M1232.969 591.719 911.329 77.422 181.64 380.586" transform="matrix(.1 0 0 -.1 0 150)"/><path style="fill-rule:nonzero;fill:#f8a94f;fill-opacity:1;stroke-width:2.77575;stroke-linecap:round;stroke-linejoin:round;stroke:#000;stroke-opacity:1;stroke-miterlimit:10" d="m911.328 77.422 321.64 514.297 86.993 666.21" transform="matrix(.1 0 0 -.1 0 150)"/><path style="fill-rule:nonzero;fill:#efaf86;fill-opacity:1;stroke-width:2.77575;stroke-linecap:round;stroke-linejoin:round;stroke:#000;stroke-opacity:1;stroke-miterlimit:10" d="m181.64 380.586-104.609 695.86L571.72 1432.46" transform="matrix(.1 0 0 -.1 0 150)"/><path style="fill-rule:nonzero;fill:#9fc7f4;fill-opacity:1;stroke-width:2.77575;stroke-linecap:round;stroke-linejoin:round;stroke:#000;stroke-opacity:1;stroke-miterlimit:10" d="M1319.96 1257.93 571.72 1432.46 77.03 1076.446" transform="matrix(.1 0 0 -.1 0 150)"/><path style="fill-rule:nonzero;fill:#80437c;fill-opacity:1;stroke-width:2.77575;stroke-linecap:round;stroke-linejoin:round;stroke:#000;stroke-opacity:1;stroke-miterlimit:10" d="m77.031 1076.445 104.61-695.86L911.328 77.423" transform="matrix(.1 0 0 -.1 0 150)"/><path style="fill-rule:nonzero;fill:#f8a94f;fill-opacity:1;stroke-width:2.77575;stroke-linecap:round;stroke-linejoin:round;stroke:#000;stroke-opacity:1;stroke-miterlimit:10" d="M1319.96 1257.93 950.978 805.82 911.328 77.422" transform="matrix(.1 0 0 -.1 0 150)"/><path style="fill-rule:nonzero;fill:#9fc7f4;fill-opacity:1;stroke-width:2.77575;stroke-linecap:round;stroke-linejoin:round;stroke:#000;stroke-opacity:1;stroke-miterlimit:10" d="M77.031 1076.445 950.977 805.82l368.984 452.11" transform="matrix(.1 0 0 -.1 0 150)"/><path style="fill-rule:nonzero;fill:#80437c;fill-opacity:1;stroke-width:2.77575;stroke-linecap:round;stroke-linejoin:round;stroke:#000;stroke-opacity:1;stroke-miterlimit:10" d="m911.328 77.422 39.649 728.398L77.03 1076.445" transform="matrix(.1 0 0 -.1 0 150)"/></svg>
